images/Tech_python.svg

<svg width="142" height="35" viewBox="0 0 142 35" fill="none" xmlns="http://www.w3.org/2000/svg">
<path d="M53.2635 17.4554C53.2635 13.1228 52.0281 10.8985 49.5573 10.7767C48.5742 10.7303 47.6143 10.8869 46.6805 11.2494C45.9352 11.5162 45.4335 11.7801 45.1696 12.0469V22.3883C46.7501 23.3801 48.1537 23.8412 49.3775 23.7687C51.9672 23.5976 53.2635 21.4951 53.2635 17.4554ZM56.3114 17.6352C56.3114 19.8363 55.7952 21.6633 54.757 23.1162C53.5999 24.7605 51.9962 25.6073 49.9459 25.6537C48.4002 25.703 46.8081 25.2187 45.1696 24.2037V33.6026L42.519 32.6572V11.7946C42.954 11.261 43.5137 10.8028 44.1923 10.4142C45.7699 9.49492 47.6868 9.02222 49.943 8.99902L49.9807 9.03672C52.0426 9.01062 53.6318 9.85742 54.7483 11.5742C55.7894 13.1489 56.3114 15.1673 56.3114 17.6352Z" fill="#989898"/>
<path d="M72.5108 23.8035C72.5108 26.7557 72.215 28.8002 71.6234 29.937C71.0289 31.0738 69.8979 31.9815 68.2275 32.6572C66.8732 33.1908 65.4087 33.4808 63.8369 33.5301L63.399 31.8597C64.9969 31.6422 66.1221 31.4247 66.7746 31.2072C68.0593 30.7722 68.9409 30.1052 69.4252 29.212C69.8138 28.4841 70.0052 27.095 70.0052 25.0389V24.3487C68.1927 25.1723 66.2932 25.5812 64.3067 25.5812C63.0017 25.5812 61.8504 25.1723 60.8586 24.3487C59.745 23.4526 59.1882 22.3158 59.1882 20.9383V9.90672L61.8388 8.99902V20.1031C61.8388 21.2892 62.2216 22.2027 62.9872 22.8436C63.7528 23.4845 64.7446 23.7919 65.9597 23.7687C67.1748 23.7426 68.4769 23.2728 69.8602 22.3535V9.39922H72.5108V23.8035Z" fill="#989898"/>
<path d="M82.8579 25.5086C82.5418 25.5347 82.2518 25.5463 81.985 25.5463C80.4857 25.5463 79.317 25.1896 78.4818 24.4733C77.6495 23.757 77.2319 22.7681 77.2319 21.5066V11.0666H75.4165V9.39912H77.2319V4.97082L79.8796 4.02832V9.39912H82.8579V11.0666H79.8796V21.4341C79.8796 22.4288 80.1464 23.1335 80.68 23.5453C81.1382 23.8846 81.8661 24.0789 82.8579 24.1282V25.5086Z" fill="#989898"/>
<path d="M98.9065 25.2909H96.2559V15.0597C96.2559 14.0186 96.0123 13.1225 95.528 12.3743C94.9683 11.5275 94.1911 11.1041 93.1935 11.1041C91.9784 11.1041 90.4588 11.745 88.6347 13.0268V25.2909H85.9841V0.835199L88.6347 0V11.1389C90.3283 9.90639 92.1785 9.28869 94.1882 9.28869C95.5918 9.28869 96.7286 9.76139 97.5986 10.7039C98.4715 11.6464 98.9065 12.8209 98.9065 14.2245V25.2909Z" fill="#989898"/>
<path d="M112.995 17.0378C112.995 15.3732 112.679 13.9986 112.049 12.9111C111.301 11.5858 110.138 10.8869 108.566 10.8144C105.661 10.9826 104.211 13.0648 104.211 17.0552C104.211 18.8851 104.512 20.4134 105.121 21.6401C105.898 23.2032 107.064 23.9746 108.619 23.9485C111.536 23.9253 112.995 21.6227 112.995 17.0378ZM115.898 17.0552C115.898 19.4245 115.292 21.3965 114.082 22.9712C112.751 24.7344 110.913 25.6189 108.566 25.6189C106.241 25.6189 104.428 24.7344 103.12 22.9712C101.934 21.3965 101.343 19.4245 101.343 17.0552C101.343 14.828 101.983 12.9546 103.265 11.4292C104.62 9.81102 106.4 8.99902 108.601 8.99902C110.802 8.99902 112.595 9.81102 113.975 11.4292C115.257 12.9546 115.898 14.828 115.898 17.0552Z" fill="#989898"/>
<path d="M131.094 25.2912H128.443V14.48C128.443 13.2939 128.086 12.3688 127.373 11.7018C126.66 11.0377 125.708 10.7158 124.522 10.7419C123.264 10.7651 122.066 11.1769 120.929 11.9744V25.2912H118.279V11.6467C119.804 10.536 121.208 9.81102 122.489 9.47172C123.699 9.15562 124.766 8.99902 125.685 8.99902C126.314 8.99902 126.906 9.05992 127.463 9.18172C128.504 9.42242 129.351 9.86902 130.003 10.5244C130.731 11.2494 131.094 12.1194 131.094 13.1373V25.2912Z" fill="#989898"/>
<path d="M16.3397 0.932891C14.9759 0.939227 13.6736 1.05554 12.5277 1.25831C9.15187 1.8547 8.53896 3.10299 8.53896 5.40506V8.44538H16.5163V9.45883H8.53896H5.54512C3.22668 9.45883 1.19658 10.8523 0.561588 13.5033C-0.170864 16.5419 -0.203352 18.438 0.561588 21.6108C1.12865 23.9725 2.48287 25.6553 4.80131 25.6553H7.54412V22.0106C7.54412 19.3776 9.8223 17.055 12.5277 17.055H20.4957C22.7138 17.055 24.4844 15.2287 24.4844 13.0012V5.40506C24.4844 3.24314 22.6606 1.61912 20.4957 1.25831C19.1253 1.03019 17.7034 0.926554 16.3397 0.932891ZM12.0256 3.37817C12.8496 3.37817 13.5225 4.06207 13.5225 4.90298C13.5225 5.74091 12.8496 6.4185 12.0256 6.4185C11.1986 6.4185 10.5287 5.74091 10.5287 4.90298C10.5287 4.06207 11.1986 3.37817 12.0256 3.37817Z" fill="#989898"/>
<path d="M25.4794 9.45898V13.0014C25.4794 15.7478 23.151 18.0593 20.4958 18.0593H12.5278C10.3452 18.0593 8.53906 19.9273 8.53906 22.1131V29.7092C8.53906 31.8712 10.419 33.1428 12.5278 33.763C15.0529 34.5055 17.4745 34.6397 20.4958 33.763C22.5042 33.1815 24.4845 32.0113 24.4845 29.7092V26.6689H16.5164V25.6555H24.4845H28.4732C30.7917 25.6555 31.6556 24.0383 32.4619 21.611C33.2948 19.1121 33.2593 16.7091 32.4619 13.5035C31.8889 11.1954 30.7946 9.45898 28.4732 9.45898H25.4794ZM20.9979 28.6958C21.8249 28.6958 22.4948 29.3734 22.4948 30.2113C22.4948 31.0522 21.8249 31.7361 20.9979 31.7361C20.1739 31.7361 19.501 31.0522 19.501 30.2113C19.501 29.3734 20.1739 28.6958 20.9979 28.6958Z" fill="#989898"/>
<path d="M136.255 7.03547H136.72V4.12085H137.821V3.77344H135.154V4.12085H136.255V7.03547ZM138.233 7.03547H138.63V4.37351L139.492 7.03513H139.934L140.832 4.38253V7.03547H141.265V3.77344H140.692L139.711 6.56804L138.874 3.77344H138.233V7.03547Z" fill="#989898"/>
</svg>

<?xml version="1.0" encoding="UTF-8" standalone="no"?><!DOCTYPE svg PUBLIC "-//W3C//DTD SVG 1.1//EN" "http://www.w3.org/Graphics/SVG/1.1/DTD/svg11.dtd"><svg width="100%" height="100%" viewBox="0 0 142 35" version="1.1" xmlns="http://www.w3.org/2000/svg" xmlns:xlink="http://www.w3.org/1999/xlink" xml:space="preserve" xmlns:serif="http://www.serif.com/" style="fill-rule:evenodd;clip-rule:evenodd;stroke-linejoin:round;stroke-miterlimit:2;"><path d="M53.264,17.455c-0,-4.332 -1.236,-6.557 -3.707,-6.678c-0.983,-0.047 -1.943,0.11 -2.876,0.472c-0.746,0.267 -1.247,0.531 -1.511,0.798l-0,10.341c1.58,0.992 2.984,1.453 4.208,1.381c2.589,-0.171 3.886,-2.274 3.886,-6.314Zm3.047,0.18c-0,2.201 -0.516,4.028 -1.554,5.481c-1.157,1.645 -2.761,2.491 -4.811,2.538c-1.546,0.049 -3.138,-0.435 -4.776,-1.45l-0,9.399l-2.651,-0.946l-0,-20.862c0.435,-0.534 0.995,-0.992 1.673,-1.381c1.578,-0.919 3.495,-1.392 5.751,-1.415l0.038,0.038c2.062,-0.026 3.651,0.82 4.767,2.537c1.041,1.575 1.563,3.593 1.563,6.061Z" style="fill:#9ea5a7;fill-rule:nonzero;"/><path d="M72.511,23.804c-0,2.952 -0.296,4.996 -0.888,6.133c-0.594,1.137 -1.725,2.044 -3.395,2.72c-1.355,0.534 -2.819,0.824 -4.391,0.873l-0.438,-1.67c1.598,-0.218 2.723,-0.435 3.376,-0.653c1.284,-0.435 2.166,-1.102 2.65,-1.995c0.389,-0.728 0.58,-2.117 0.58,-4.173l-0,-0.69c-1.812,0.823 -3.712,1.232 -5.698,1.232c-1.305,-0 -2.457,-0.409 -3.448,-1.232c-1.114,-0.896 -1.671,-2.033 -1.671,-3.411l-0,-11.031l2.651,-0.908l-0,11.104c-0,1.186 0.383,2.1 1.148,2.741c0.766,0.64 1.758,0.948 2.973,0.925c1.215,-0.026 2.517,-0.496 3.9,-1.416l-0,-12.954l2.651,-0l-0,14.405Z" style="fill:#9ea5a7;fill-rule:nonzero;"/><path d="M82.858,25.509c-0.316,0.026 -0.606,0.037 -0.873,0.037c-1.499,0 -2.668,-0.356 -3.503,-1.073c-0.832,-0.716 -1.25,-1.705 -1.25,-2.966l-0,-10.44l-1.815,-0l-0,-1.668l1.815,-0l-0,-4.428l2.648,-0.943l-0,5.371l2.978,0l-0,1.668l-2.978,0l-0,10.367c-0,0.995 0.266,1.7 0.8,2.111c0.458,0.34 1.186,0.534 2.178,0.583l-0,1.381Z" style="fill:#9ea5a7;fill-rule:nonzero;"/><path d="M98.907,25.291l-2.651,0l-0,-10.231c-0,-1.041 -0.244,-1.938 -0.728,-2.686c-0.56,-0.847 -1.337,-1.27 -2.334,-1.27c-1.216,-0 -2.735,0.641 -4.559,1.923l-0,12.264l-2.651,-0l-0,-24.456l2.651,-0.835l-0,11.139c1.693,-1.233 3.544,-1.85 5.553,-1.85c1.404,-0 2.541,0.472 3.411,1.415c0.873,0.942 1.308,2.117 1.308,3.52l-0,11.067Z" style="fill:#9ea5a7;fill-rule:nonzero;"/><path d="M112.995,17.038c-0,-1.665 -0.316,-3.039 -0.946,-4.127c-0.748,-1.325 -1.911,-2.024 -3.483,-2.097c-2.905,0.169 -4.355,2.251 -4.355,6.241c-0,1.83 0.301,3.358 0.91,4.585c0.777,1.563 1.943,2.335 3.498,2.308c2.917,-0.023 4.376,-2.325 4.376,-6.91Zm2.903,0.017c-0,2.369 -0.606,4.341 -1.816,5.916c-1.331,1.763 -3.169,2.648 -5.516,2.648c-2.325,-0 -4.138,-0.885 -5.446,-2.648c-1.186,-1.575 -1.777,-3.547 -1.777,-5.916c-0,-2.227 0.64,-4.1 1.922,-5.626c1.355,-1.618 3.135,-2.43 5.336,-2.43c2.201,-0 3.994,0.812 5.374,2.43c1.282,1.526 1.923,3.399 1.923,5.626Z" style="fill:#9ea5a7;fill-rule:nonzero;"/><path d="M131.094,25.291l-2.651,0l-0,-10.811c-0,-1.186 -0.357,-2.111 -1.07,-2.778c-0.713,-0.664 -1.665,-0.986 -2.851,-0.96c-1.258,0.023 -2.456,0.435 -3.593,1.232l-0,13.317l-2.65,0l-0,-13.644c1.525,-1.111 2.929,-1.836 4.21,-2.175c1.21,-0.316 2.277,-0.473 3.196,-0.473c0.629,0 1.221,0.061 1.778,0.183c1.041,0.24 1.888,0.687 2.54,1.342c0.728,0.725 1.091,1.595 1.091,2.613l-0,12.154Z" style="fill:#9ea5a7;fill-rule:nonzero;"/><path d="M16.34,0.933c-1.364,0.006 -2.666,0.123 -3.812,0.325c-3.376,0.597 -3.989,1.845 -3.989,4.147l-0,3.04l7.977,0l-0,1.014l-10.971,0c-2.318,0 -4.348,1.393 -4.983,4.044c-0.733,3.039 -0.765,4.935 -0,8.108c0.567,2.361 1.921,4.044 4.239,4.044l2.743,0l-0,-3.644c-0,-2.633 2.278,-4.956 4.984,-4.956l7.968,0c2.218,0 3.988,-1.826 3.988,-4.054l-0,-7.596c-0,-2.162 -1.823,-3.786 -3.988,-4.147c-1.371,-0.228 -2.793,-0.331 -4.156,-0.325Zm-4.314,2.445c0.824,-0 1.497,0.684 1.497,1.525c-0,0.838 -0.673,1.515 -1.497,1.515c-0.827,-0 -1.497,-0.677 -1.497,-1.515c-0,-0.841 0.67,-1.525 1.497,-1.525Z" style="fill:#9ea5a7;fill-rule:nonzero;"/><path d="M25.479,9.459l-0,3.542c-0,2.747 -2.328,5.058 -4.983,5.058l-7.968,0c-2.183,0 -3.989,1.868 -3.989,4.054l-0,7.596c-0,2.162 1.88,3.434 3.989,4.054c2.525,0.742 4.947,0.877 7.968,0c2.008,-0.581 3.989,-1.752 3.989,-4.054l-0,-3.04l-7.969,0l-0,-1.013l11.957,0c2.319,0 3.183,-1.618 3.989,-4.045c0.833,-2.499 0.797,-4.902 -0,-8.107c-0.573,-2.309 -1.667,-4.045 -3.989,-4.045l-2.994,-0Zm-4.481,19.237c0.827,0 1.497,0.677 1.497,1.515c-0,0.841 -0.67,1.525 -1.497,1.525c-0.824,0 -1.497,-0.684 -1.497,-1.525c-0,-0.838 0.673,-1.515 1.497,-1.515Z" style="fill:#9ea5a7;fill-rule:nonzero;"/><path d="M136.255,7.035l0.465,-0l-0,-2.914l1.101,-0l-0,-0.348l-2.667,-0l-0,0.348l1.101,-0l-0,2.914Zm1.978,-0l0.397,-0l-0,-2.661l0.862,2.661l0.442,-0l0.898,-2.652l-0,2.652l0.433,-0l-0,-3.262l-0.573,-0l-0.981,2.795l-0.837,-2.795l-0.641,-0l-0,3.262Z" style="fill:#9ea5a7;fill-rule:nonzero;"/></svg>
